www/assets/icons/directions_boat.svg

<svg width="24" height="24" viewBox="0 0 24 24" xmlns="http://www.w3.org/2000/svg" fill='currentColor'><path d="M20.0011 21C18.6111 21 17.2211 20.53 16.0011 19.68C13.5611 21.39 10.4411 21.39 8.00111 19.68C6.78111 20.53 5.39111 21 4.00111 21H2.00111V23H4.00111C5.38111 23 6.74111 22.65 8.00111 22.01C10.5211 23.3 13.4811 23.3 16.0011 22.01C17.2611 22.66 18.6211 23 20.0011 23H22.0011V21H20.0011ZM3.95111 19H4.00111C5.60111 19 7.02111 18.12 8.00111 17C8.98111 18.12 10.4011 19 12.0011 19C13.6011 19 15.0211 18.12 16.0011 17C16.9811 18.12 18.4011 19 20.0011 19H20.0511L21.9411 12.32C22.0211 12.06 22.0011 11.78 21.8811 11.54C21.7611 11.3 21.5411 11.12 21.2811 11.04L20.0011 10.62V6C20.0011 4.9 19.1011 4 18.0011 4H15.0011V1H9.00111V4H6.00111C4.90111 4 4.00111 4.9 4.00111 6V10.62L2.71111 11.04C2.45111 11.12 2.23111 11.3 2.11111 11.54C1.99111 11.78 1.96111 12.06 2.05111 12.32L3.95111 19ZM6.00111 6H18.0011V9.97L12.0011 8L6.00111 9.97V6Z"/></svg>

<svg xmlns="http://www.w3.org/2000/svg" width="24" height="24" viewBox="0 0 24 24" fill='currentColor'><path d="M20.001 21c-1.39 0-2.78-.47-4-1.32-2.44 1.71-5.56 1.71-8 0-1.22.85-2.61 1.32-4 1.32h-2v2h2c1.38 0 2.74-.35 4-.99a8.75 8.75 0 0 0 8 0c1.26.65 2.62.99 4 .99h2v-2zm-16.05-2h.05c1.6 0 3.02-.88 4-2 .98 1.12 2.4 2 4 2s3.02-.88 4-2c.98 1.12 2.4 2 4 2h.05l1.89-6.68c.08-.26.06-.54-.06-.78a1 1 0 0 0-.6-.5l-1.28-.42V6c0-1.1-.9-2-2-2h-3V1h-6v3h-3c-1.1 0-2 .9-2 2v4.62l-1.29.42a1.007 1.007 0 0 0-.66 1.28zm2.05-13h12v3.97l-6-1.97-6 1.97z"/></svg>
